usr/share/icons/big-icons/symbolic/actions/snap-bounding-box-corners.svg

<svg xmlns="http://www.w3.org/2000/svg" viewBox="0 0 16 16">
<defs id="defs3051">
<style id="current-color-scheme" type="text/css">
.ColorScheme-Text{color:#fcfcfc}.ColorScheme-Highlight{color:#3daee9}
</style>
</defs>
<path d="M2 2v3h3V2zm9 0v3h3V2zM3 3h1v1H3zm3 0v1h1V3zm3 0v1h1V3zm3 0h1v1h-1zM3 6v1h1V6zm9 0v1h1V6zM3 9v1h1V9zm9 0v1h1V9zM2 11v3h3v-3zm1 1h1v1H3zm3 0v1h1v-1zm3 0v1h1v-1z" class="ColorScheme-Text" style="fill:currentColor;fill-opacity:1;stroke:none"/>
<path d="M431.714 541.79v4h4v-4zm1 1h2v2h-2z" class="ColorScheme-Highlight" style="fill:currentColor;fill-opacity:1;stroke:none" transform="translate(-421.714 -531.79)"/>
</svg>

<svg xmlns="http://www.w3.org/2000/svg" viewBox="0 0 16 16">
  <defs id="defs3051">
    <style type="text/css" id="current-color-scheme">
      .ColorScheme-Text {
        color:#eff0f1;
      }
      .ColorScheme-Highlight {
        color:#3daee9;
      }
      </style>
  </defs>
      <g transform="translate(-421.71429,-531.79074)">
  <path 
        style="fill:currentColor;fill-opacity:1;stroke:none"
        d="M 2 2 L 2 5 L 5 5 L 5 2 L 2 2 z M 11 2 L 11 5 L 14 5 L 14 2 L 11 2 z M 3 3 L 4 3 L 4 4 L 3 4 L 3 3 z M 6 3 L 6 4 L 7 4 L 7 3 L 6 3 z M 9 3 L 9 4 L 10 4 L 10 3 L 9 3 z M 12 3 L 13 3 L 13 4 L 12 4 L 12 3 z M 3 6 L 3 7 L 4 7 L 4 6 L 3 6 z M 12 6 L 12 7 L 13 7 L 13 6 L 12 6 z M 3 9 L 3 10 L 4 10 L 4 9 L 3 9 z M 12 9 L 12 10 L 13 10 L 13 9 L 12 9 z M 2 11 L 2 14 L 5 14 L 5 11 L 2 11 z M 3 12 L 4 12 L 4 13 L 3 13 L 3 12 z M 6 12 L 6 13 L 7 13 L 7 12 L 6 12 z M 9 12 L 9 13 L 10 13 L 10 12 L 9 12 z "
        class="ColorScheme-Text"
      transform="translate(421.71429,531.79074)"
        />
  <path 
        style="fill:currentColor;fill-opacity:1;stroke:none"
        d="m 431.71429,541.79074 0,4 4,0 0,-4 -4,0 z m 1,1 2,0 0,2 -2,0 0,-2 z"
        class="ColorScheme-Highlight"
        />
  </g>
</svg>
